src/assets/icons/visa.svg

<svg width="32" height="22" viewBox="0 0 32 22" fill="none" xmlns="http://www.w3.org/2000/svg">
<path d="M13.112 7.138L9.97 14.634H7.92L6.374 8.651C6.28 8.283 6.199 8.148 5.913 7.993C5.447 7.74 4.677 7.503 4 7.355L4.046 7.138H7.346C7.56165 7.13778 7.77027 7.21466 7.93421 7.35476C8.09815 7.49486 8.2066 7.68895 8.24 7.902L9.057 12.24L11.075 7.138H13.112ZM21.145 12.187C21.153 10.208 18.409 10.099 18.428 9.215C18.434 8.946 18.69 8.66 19.25 8.587C19.9063 8.52467 20.5672 8.64076 21.163 8.923L21.503 7.333C20.923 7.11495 20.3087 7.00218 19.689 7C17.772 7 16.423 8.02 16.411 9.479C16.399 10.558 17.374 11.159 18.109 11.519C18.865 11.886 19.119 12.122 19.115 12.45C19.11 12.954 18.513 13.175 17.955 13.184C16.98 13.199 16.415 12.921 15.963 12.711L15.612 14.353C16.065 14.561 16.901 14.743 17.768 14.751C19.805 14.751 21.138 13.745 21.145 12.187ZM26.206 14.634H28L26.435 7.138H24.779C24.6021 7.13636 24.4287 7.18792 24.2814 7.28599C24.1341 7.38406 24.0197 7.52412 23.953 7.688L21.044 14.634H23.08L23.485 13.514H25.973L26.206 14.634ZM24.043 11.978L25.063 9.163L25.651 11.978H24.043ZM15.883 7.138L14.28 14.634H12.34L13.945 7.138H15.883Z" fill="#1A1F71"/>
</svg>

<svg xmlns="http://www.w3.org/2000/svg" width="32" height="22" fill="none"><path fill="#1A1F71" d="M13.112 7.138 9.97 14.634H7.92L6.374 8.651c-.094-.368-.175-.503-.461-.658-.466-.253-1.236-.49-1.913-.638l.046-.217h3.3a.904.904 0 0 1 .894.764l.817 4.338 2.018-5.102h2.037Zm8.033 5.049c.008-1.979-2.736-2.088-2.717-2.972.006-.269.262-.555.822-.628a3.66 3.66 0 0 1 1.913.336l.34-1.59A5.207 5.207 0 0 0 19.689 7c-1.917 0-3.266 1.02-3.278 2.479-.012 1.079.963 1.68 1.698 2.04.756.367 1.01.603 1.006.931-.005.504-.602.725-1.16.734-.975.015-1.54-.263-1.992-.473l-.351 1.642c.453.208 1.289.39 2.156.398 2.037 0 3.37-1.006 3.377-2.564Zm5.061 2.447H28l-1.565-7.496h-1.656a.883.883 0 0 0-.826.55l-2.909 6.946h2.036l.405-1.12h2.488l.233 1.12Zm-2.163-2.656 1.02-2.815.588 2.815h-1.608Zm-8.16-4.84-1.603 7.496h-1.94l1.605-7.496h1.938Z"/></svg>
